X: 3820
T: Black Crags, The
R: slip jig
M: 9/8
K: Eminor
BEE EFG FED|BEE d2B AFA|BEE EEE GAB|ABF D2D FGA:|
EFG FGA BAG|EBB dBB ABB|EFG FGA GFE|DAA dAA FAA|
EFG FGA BAG|EBB dBB ABB|cBA BAG FGA|DFd BAG FGA||

